X: 115204
T: MISS WEDDERBURN
Q: "Reel."
R:  Reel.
%R: reel
B: James Kerr "Merry Melodies" v.1 p.15 s.2 #4
Z: 2017 John Chambers <jc:trillian.mit.edu>
M: C
L: 1/8
K: A
uF |\
E2(EF) EFAc | BABc BAFA |\
E2(EF) EFAc | BABc A/A/A A :|\
uc |\
d2fd c2ec | BABc BAFc |
d2fd c2ec | BABc A/A/A (Ac) |\
dfdf cece | BABc BAFf |\
efge a2(gf) | ecBc A2-A |]\
"_Fin."A4 ||

% %newpage
%%sep 1 1 500
%%sep 1 1 500
%%center Set. 26th

%%sep 1 1 500
%%sep 1 1 500

